X: 333
T: John Howat's Reel
C: Hugh Dunlop
R: reel
B: Kerr v.2 p.20 #173
Z: 2010 John Chambers <jc:trillian.mit.edu>
M: C|
L: 1/8
K: D
fg \
| "D"a2fd "A7"g2ec | "D"d2AG     FDDF |"Em"E2FG    ABcd |1 "A7"eAfA   g2 :|2 "A"eABc "D"d2 ||
A2 \
| "D"defg     aAfA | "G"gfed "A7"ceAe | "D"defg    aAfA |  "G"gba^g "A7"a3f |
| "D"abaf  "G"gfed |"Em"efgA "A7"GFED | "D"F2AF "G"G2BG |  "A7"Adce  "D"d2 |]

%%sep 1 1 500

